icons/desktop/20/sync-20.svg

<svg width="20" height="21" viewBox="0 0 20 21" fill="none" xmlns="http://www.w3.org/2000/svg">
<path d="M14.957 5.51932C15.3546 5.2446 15.9001 5.34441 16.1748 5.74197C17.0105 6.95154 17.4999 8.41991 17.5 9.99979C17.4999 14.142 14.1422 17.4997 10 17.4998C9.99153 17.4998 9.98307 17.4988 9.97461 17.4988V19.5203C9.97432 19.9621 9.44289 20.1867 9.12598 19.8767L6.12598 16.9412C5.92701 16.7472 5.92518 16.4282 6.12109 16.2312L9.12109 13.2185C9.43513 12.9029 9.97461 13.1262 9.97461 13.5721V15.7488C9.98307 15.7488 9.99153 15.7498 10 15.7498C13.1757 15.7497 15.7499 13.1755 15.75 9.99979C15.7499 8.78604 15.3754 7.66234 14.7354 6.73611C14.4608 6.33869 14.5598 5.79411 14.957 5.51932Z" fill="black"/>
<path d="M10 0.500763C10.0001 0.0548809 10.5405 -0.167734 10.8545 0.148224L13.8545 3.15994C14.0503 3.35696 14.0476 3.67598 13.8486 3.8699L10.8486 6.80643C10.5316 7.11577 9.99908 6.89076 9.99902 6.44901L10 4.24979C6.8243 4.24979 4.25008 6.82411 4.25 9.99979C4.25 11.2179 4.62696 12.3451 5.27148 13.2742C5.54692 13.6712 5.44875 14.2165 5.05176 14.492C4.65471 14.7673 4.10941 14.6683 3.83398 14.2713C2.99273 13.0585 2.5 11.5855 2.5 9.99979C2.50008 5.85761 5.8578 2.49979 10 2.49979V0.500763Z" fill="black"/>
</svg>

<!-- This Source Code Form is subject to the terms of the Mozilla Public
   - License, v. 2.0. If a copy of the MPL was not distributed with this
   - file, You can obtain one at http://mozilla.org/MPL/2.0/. -->
<svg xmlns="http://www.w3.org/2000/svg" width="20" height="21" fill="context-fill" fill-opacity="context-fill-opacity" viewBox="0 0 20 21">
    <path d="M14.957 5.52a.876.876 0 0 1 1.218.222A7.5 7.5 0 0 1 10 17.5l-.025-.001v2.021a.5.5 0 0 1-.849.357l-3-2.936a.5.5 0 0 1-.005-.71l3-3.013a.5.5 0 0 1 .854.354v2.177H10a5.75 5.75 0 0 0 4.735-9.013.875.875 0 0 1 .222-1.217M10 .5a.5.5 0 0 1 .854-.352l3 3.012a.5.5 0 0 1-.005.71l-3 2.936a.5.5 0 0 1-.85-.357l.001-2.2a5.75 5.75 0 0 0-4.729 9.025.875.875 0 1 1-1.437.997A7.5 7.5 0 0 1 10 2.5z" />
</svg>
